resources/svg/spell-check.svg

<svg xmlns="http://www.w3.org/2000/svg" viewBox="0 0 14 14" fill="currentColor"><path fill-rule="evenodd" d="M5.54045123,6.00229535 L2.45653991,6.00229535 L1.95069073,7.38869124 C1.78049224,7.8551593 1.21680255,8.11075033 0.691654566,7.95956978 C0.166506582,7.80838924 -0.121236838,7.30768613 0.0489616489,6.84121807 L2.09676649,1.22873845 C2.43716347,0.29580234 3.56454285,-0.215379716 4.61483881,0.0869813682 C5.22459088,0.262517886 5.70260629,0.687119952 5.90022465,1.22873845 L7.94802949,6.84121807 C8.11822798,7.30768613 7.83048456,7.80838924 7.30533658,7.95956978 C6.78018859,8.11075033 6.2164989,7.8551593 6.04630042,7.38869124 L5.54045123,6.00229535 Z M4.81043941,4.00153023 L3.99849557,1.77621162 L3.18655173,4.00153023 L4.81043941,4.00153023 Z M7.34609832,11.5848629 L12.2936504,6.63322182 C12.6840015,6.24254813 13.3168856,6.24254813 13.7072367,6.63322182 C14.0975878,7.02389551 14.0975878,7.65730271 13.7072367,8.0479764 L8.05289148,13.7069947 C7.6625404,14.0976684 7.02965625,14.0976684 6.63930517,13.7069947 L3.81213257,10.8774856 C3.42178149,10.4868119 3.42178149,9.85340468 3.81213257,9.46273099 C4.20248364,9.0720573 4.83536779,9.0720573 5.22571887,9.46273099 L7.34609832,11.5848629 Z"/></svg>

<svg xmlns="http://www.w3.org/2000/svg" fill="currentColor" viewBox="0 0 14 14"><path fill-rule="evenodd" d="M5.54 6.002H2.457L1.95 7.39c-.17.466-.734.722-1.26.57-.522-.15-.81-.651-.64-1.118L2.097 1.23C2.437.296 3.565-.215 4.615.087c.61.176 1.088.6 1.285 1.142L7.948 6.84c.17.467-.118.967-.643 1.119-.525.15-1.089-.105-1.259-.571L5.54 6.002Zm-.73-2-.812-2.226-.811 2.226H4.81Zm2.536 7.583 4.948-4.952a.999.999 0 1 1 1.413 1.415l-5.654 5.659a.999.999 0 0 1-1.414 0l-2.827-2.83a1.001 1.001 0 0 1 1.414-1.414l2.12 2.122Z"/></svg>
